src/components/common/icons/double-like.svg

<svg height="41" viewBox="0 0 63 41" width="63" xmlns="http://www.w3.org/2000/svg"><path d="m58.3607769 5.1635037c-2.4699231-2.43507407-5.7556154-3.77762963-9.2496923-3.77762963-4.3421538 0-7.1755384 1.80918519-8.8442308 3.43044445-.2035384-.18633333-.4103076-.36470371-.6235384-.5382963-1.6153846-1.37281481-4.0723846-2.72014815-7.5761539-2.87303703-.2051538-.01114815-.411923-.01751852-.6186923-.01751852-.0193846 0-.0371538-.0015926-.0565384-.0015926h-.0016154-.0016154c-.0193846 0-.0371538.0015926-.0549231.0015926-.2083846 0-.4151538.00637037-.6203077.01751852-3.5021538.15288888-5.9607692 1.50022222-7.5761538 2.87303703-.2132308.17359259-.4183846.35196297-.6219231.5382963-1.6703077-1.62125926-4.5036923-3.43044445-8.8458461-3.43044445-3.494077 0-6.77976928 1.34255556-9.24969235 3.77762963-5.09976924 5.0278148-5.09976924 13.2105556 0 18.2383704 2.35523077 2.3235926 4.50207692 4.1869259 6.57299995 5.9881481 2.8463077 2.4748889 5.5359231 4.8096297 8.3208462 7.9804815.2180769.2468519 1.0467692 1.2884074 1.5184615 1.8872222l1.6961539 2.1627408 1.6977692-2.1627408c.4716923-.5988148 1.2987692-1.6403703 1.5200769-1.8872222 1.898077-2.1627407 3.7525385-3.9368889 5.6441539-5.6314074 1.89 1.6945185 3.7460769 3.4670741 5.6457692 5.6314074.2213077.2468519 1.0467692 1.2884074 1.5184616 1.8872222l1.6977692 2.1627408 1.6977692-2.1627408c.4716923-.5988148 1.3003846-1.6403703 1.5168462-1.8872222 2.7865384-3.1708518 5.4745384-5.5055926 8.3208461-7.9804815 2.0725385-1.8012222 4.2177693-3.6645555 6.573-5.9881481 5.0997693-5.0278148 5.0997693-13.2105556 0-18.2383704m-35.8324615 29.3944815c-2.9626154-3.3635556-5.7475385-5.7858889-8.6923846-8.3451852-2.0256923-1.7598148-4.11761542-3.5753704-6.37753849-5.805-3.42461539-3.3778889-3.42461539-8.8723333.00161538-12.25022222 1.659-1.634 3.86238461-2.53540741 6.20953851-2.53540741.9918461 0 1.860923.13855556 2.6185384.36151852 4.5085385 1.04792592 6.2402308 5.03577781 6.2402308 5.03577781s1.7139231-3.94325929 6.1675384-5.01825929c.7737693-.23251852 1.6654616-.37903704 2.6928462-.37903704 2.3455385 0 4.5505385.90140741 6.2095385 2.537 3.4246153 3.37629633 3.4246153 8.87074073 0 12.24862963-2.2599231 2.2296296-4.3518462 4.0451852-6.3743077 5.805-2.948077 2.5592963-5.7313846 4.9816296-8.6956154 8.3451852m32.7939231-14.1501852c-2.2599231 2.2296296-4.3534616 4.0451852-6.3759231 5.8065926-2.9464616 2.5577037-5.7313846 4.9784444-8.694 8.3435926-1.9206923-2.1834445-3.7686923-3.9655556-5.6328462-5.6505185 1.9013077-1.6547037 3.8704616-3.3890371 6.0173077-5.5055926 4.1693077-4.1104815 4.9285385-10.3263704 2.2809231-15.20925929.9498462-1.05907407 2.8850769-2.57044444 6.1933846-2.57044444 2.3487692 0 4.5521539.90140741 6.2111539 2.537 3.4246153 3.37629633 3.4246153 8.87074073 0 12.24862963" fill="#010202" fill-rule="evenodd" transform="translate(0 -1)"/></svg>

<?xml version="1.0" encoding="UTF-8"?>
<svg width="63px" height="41px" viewBox="0 0 63 41" version="1.1" xmlns="http://www.w3.org/2000/svg" xmlns:xlink="http://www.w3.org/1999/xlink">
    <!-- Generator: Sketch 52.5 (67469) - http://www.bohemiancoding.com/sketch -->
    <title>Icons/.double-like</title>
    <desc>Created with Sketch.</desc>
    <g id="Vapaaehtoisalusta-Layouts" stroke="none" stroke-width="1" fill="none" fill-rule="evenodd">
        <g id="HKI-Ikonit" transform="translate(-354.000000, -385.000000)" fill="#010202">
            <g id="Icons/.double-like" transform="translate(354.000000, 384.000000)">
                <path d="M58.3607769,5.1635037 C55.8908538,2.72842963 52.6051615,1.38587407 49.1110846,1.38587407 C44.7689308,1.38587407 41.9355462,3.19505926 40.2668538,4.81631852 C40.0633154,4.62998519 39.8565462,4.45161481 39.6433154,4.27802222 C38.0279308,2.90520741 35.5709308,1.55787407 32.0671615,1.40498519 C31.8620077,1.39383704 31.6552385,1.38746667 31.4484692,1.38746667 C31.4290846,1.38746667 31.4113154,1.38587407 31.3919308,1.38587407 L31.3903154,1.38587407 L31.3887,1.38587407 C31.3693154,1.38587407 31.3515462,1.38746667 31.3337769,1.38746667 C31.1253923,1.38746667 30.9186231,1.39383704 30.7134692,1.40498519 C27.2113154,1.55787407 24.7527,2.90520741 23.1373154,4.27802222 C22.9240846,4.45161481 22.7189308,4.62998519 22.5153923,4.81631852 C20.8450846,3.19505926 18.0117,1.38587407 13.6695462,1.38587407 C10.1754692,1.38587407 6.88977692,2.72842963 4.41985385,5.1635037 C-0.679915385,10.1913185 -0.679915385,18.3740593 4.41985385,23.4018741 C6.77508462,25.7254667 8.92193077,27.5888 10.9928538,29.3900222 C13.8391615,31.8649111 16.5287769,34.1996519 19.3137,37.3705037 C19.5317769,37.6173556 20.3604692,38.6589111 20.8321615,39.2577259 L22.5283154,41.4204667 L24.2260846,39.2577259 C24.6977769,38.6589111 25.5248538,37.6173556 25.7461615,37.3705037 C27.6442385,35.207763 29.4987,33.4336148 31.3903154,31.7390963 C33.2803154,33.4336148 35.1363923,35.2061704 37.0360846,37.3705037 C37.2573923,37.6173556 38.0828538,38.6589111 38.5545462,39.2577259 L40.2523154,41.4204667 L41.9500846,39.2577259 C42.4217769,38.6589111 43.2504692,37.6173556 43.4669308,37.3705037 C46.2534692,34.1996519 48.9414692,31.8649111 51.7877769,29.3900222 C53.8603154,27.5888 56.0055462,25.7254667 58.3607769,23.4018741 C63.4605462,18.3740593 63.4605462,10.1913185 58.3607769,5.1635037 M22.5283154,34.5579852 C19.5657,31.1944296 16.7807769,28.7720963 13.8359308,26.2128 C11.8102385,24.4529852 9.71831538,22.6374296 7.45839231,20.4078 C4.03377692,17.0299111 4.03377692,11.5354667 7.46000769,8.15757778 C9.11900769,6.52357778 11.3223923,5.62217037 13.6695462,5.62217037 C14.6613923,5.62217037 15.5304692,5.76072593 16.2880846,5.98368889 C20.7966231,7.03161481 22.5283154,11.0194667 22.5283154,11.0194667 C22.5283154,11.0194667 24.2422385,7.07620741 28.6958538,6.00120741 C29.4696231,5.76868889 30.3613154,5.62217037 31.3887,5.62217037 C33.7342385,5.62217037 35.9392385,6.52357778 37.5982385,8.15917037 C41.0228538,11.5354667 41.0228538,17.0299111 37.5982385,20.4078 C35.3383154,22.6374296 33.2463923,24.4529852 31.2239308,26.2128 C28.2758538,28.7720963 25.4925462,31.1944296 22.5283154,34.5579852 M55.3222385,20.4078 C53.0623154,22.6374296 50.9687769,24.4529852 48.9463154,26.2143926 C45.9998538,28.7720963 43.2149308,31.192837 40.2523154,34.5579852 C38.3316231,32.3745407 36.4836231,30.5924296 34.6194692,28.9074667 C36.5207769,27.252763 38.4899308,25.5184296 40.6367769,23.4018741 C44.8060846,19.2913926 45.5653154,13.0755037 42.9177,8.19261481 C43.8675462,7.13354074 45.8027769,5.62217037 49.1110846,5.62217037 C51.4598538,5.62217037 53.6632385,6.52357778 55.3222385,8.15917037 C58.7468538,11.5354667 58.7468538,17.0299111 55.3222385,20.4078" id="Fill-18"></path>
            </g>
        </g>
    </g>
</svg>
